X: 1
T: String Quartet in F Major opus 17 no 2 mvt 3
C: Franz Joseph Haydn
%%abc-version 2.0
%%abcx-abcm2ps-target-version 5.9.1 (29 Sep 2008)
%%abc-creator hum2abc beta
%%abcx-conversion-date 2021/02/14 14:38:29
%%abc-copyright Copyright (c) 1994, 2000 Center for Computer Assisted Research in the Humanities
%%abc-edited-by Frances Bennion
%%abcx-initial-encoding-date 1997/04/15
%%gracespace 0 6 6
%%humdrum-veritas 3053039247
%%humdrum-veritas-data 2079158013
%%linebreak <none>
%%barnumbers 0
L: 1/8
M: 4/4
N: Derived from op17n2-03.krn
Q: "Adagio"
%%staves [1 2 3 4]
V: 1
V: 2
V: 3 clef=alto
V: 4 clef=bass
K: Bb
[V:1]f6 e/d/c/B/ [I:setbarnb2] |
[V:2]z2 D2 D2 D2 |
[V:3]z2 F2 F2 F2 |
[V:4]z2 B,2 B,2 B,2 |
[V:1]fe2 <e2 e fg |
[V:2]z2 E2 E2 E2 |
[V:3]z2 G2 G2 G2 |
[V:4]z2 B,2 B,2 B,2 |
[V:1]gc2 <c2 c de |
[V:2]z2 E2 E2 E2 |
[V:3]z2 F2 F2 F2 |
[V:4]z2 A,2 A,2 A,2 |
[V:1](3ede d2 >f2 fb |
[V:2]z2 D2 D2 B2 |
[V:3]z2 F2 F2 F2 |
[V:4]z2 B,2 B,2 D,2 |
[V:1]bc2 <c2 c de |
[V:2]z2 B2 A2 A2 |
[V:3]z2 G2 F2 C2 |
[V:4]z2 E,2 F,2 F,2 |
[V:1]dc/B/ B2 z4 |
[V:2]z2 B2 B2 B2 |
[V:3]z2 D2 D2 D2 |
[V:4]z2 B,,2 B,,2 B,,2 |
[V:1](3:2:2F4- F/FG D|
[V:2]z2 D2 D2 D2 |
[V:3]z2 F,2 F,2 B,2 |
[V:4]z2 B,,2 B,,2 B,,2 |
[V:1]FE2 <E2 E FG |
[V:2]z2 C2 C2 C2 |
[V:3]z2 G,2 G,2 G,2 |
[V:4]z2 B,,2 B,,2 B,,2 |
[V:1]GC2 <C2 C DE |
[V:2]z2 E2 E2 E2 |
[V:3]z2 F,2 F,2 F,2 |
[V:4]z2 A,,2 A,,2 A,,2 |
[V:1]ED/E/ D2 >F2 FB |
[V:2]z2 D2 D2 B,2 |
[V:3]z2 F,2 F,2 F,2 |
[V:4]z2 B,,2 B,,2 D,,2 |
[V:1]BC2 <C2 C DE |
[V:2]z2 B,2 A,2 A,2 |
[V:3]z2 G,2 F,2 C,2 |
[V:4]z2 E,,2 F,,2 F,,2 |
[V:1]DC/B,/ B,2 z4 |
[V:2]z2 B,2 B,2 B,2 |
[V:3]z2 D,2 D,2 D,2 |
[V:4]z2 B,,2 B,,2 B,,2 |
[V:1]f6 =e/f/g/f/ |
[V:2]z2 d2 d2 d2 |
[V:3]z2 F2 F2 F2 |
[V:4]z2 B,2 B,2 B,2 |
[V:1]fc (3c4 d=e (3fga |
[V:2]z2 c2 c2 c2 |
[V:3]z2 F2 F2 F2 |
[V:4]z2 A,2 A,2 A,2 |
[V:1](3b4 >>g4 =e (3cdB |
[V:2]z2 B2 B2 B2 |
[V:3]z2 F2 =E2 E2 |
[V:4]z2 G,2 C2 C2 |
[V:1]B2 A2 z4 |
[V:2]z2 A2 A2 A2 |
[V:3]z2 F2 C2 C2 |
[V:4]z2 F,2 F,2 F,2 |
[V:1]F6 =E/F/G/F/ |
[V:2]z2 D2 D2 D2 |
[V:3]z2 F2 F,2 F,2 |
[V:4]z2 B,,2 B,,2 B,,2 |
[V:1]FC (3C4 D=E (3FGA |
[V:2]z2 C2 C2 C2 |
[V:3]z2 F,2 F,2 F,2 |
[V:4]z2 A,,2 A,,2 A,,2 |
[V:1](3B4 >>G4 =E (3CDB, |
[V:2]z2 B,2 B,2 B,2 |
[V:3]z2 F,2 =E,2 E,2 |
[V:4]z2 G,,2 C,2 C,2 |
[V:1]B,2 A,F2 <F2 E |
[V:2]z2 A,2 C2 C2 |
[V:3]z2 F,2 F,2 F,2 |
[V:4]z2 F,,2 A,,2 A,,2 |
[V:1](3E^CD (3D4 ^FG (3ABG |
[V:2]z2 D2 D2 D2 |
[V:3]z2 F,2 F,2 D2 |
[V:4]z2 B,,2 B,,2 B,,2 |
[V:1]=E4 z4 |
[V:2](3G,=EC (3G,EC (3G,EC (3G,EC |
[V:3]z2 C2 C2 C2 |
[V:4]z2 C,2 C,2 C,2 |
[V:1]=e8 |
[V:2](3G,=EB, (3G,EB, (3G,EB, (3G,EB, |
[V:3]z2 B,2 B,2 B,2 |
[V:4]z2 C,2 C,2 C,2 |
[V:1](3fc'a (3fcA (3FCA, (3fff |
[V:2](3A,FC (3A,FC (3A,FC (3A,FC |
[V:3]z2 A,2 A,2 A,2 |
[V:4]z2 C,2 C,2 C,2 |
[V:1]=e8 |
[V:2](3G,=EB, (3G,EB, (3G,EB, (3G,EB, |
[V:3]z2 B2 B2 B2 |
[V:4]z2 C,2 C,2 C,2 |
[V:1](3fc'a (3fcA (3FCA, (3fff |
[V:2](3A,FC (3A,FC (3A,FC (3A,FC |
[V:3]z2 F2 F2 F2 |
[V:4]z2 C,2 C,2 C,2 |
[V:1]c'8 |
[V:2](3A,^FE (3A,FE (3A,FE (3A,FE |
[V:3]z2 ^F2 F2 F2 |
[V:4]z2 A,,2 A,,2 A,,2 |
[V:1](3bag (3ggg (3ggg (3gbg |
[V:2](3B,GD (3B,GD (3B,GD (3B,GD |
[V:3]z2 D2 D2 D2 |
[V:4]z2 B,,2 B,,2 B,,2 |
[V:1](3=edc (3ccc (3ccc (3cec |
[V:2](3CG=E (3CGE (3CGE (3CGE |
[V:3]z2 =E2 E2 E2 |
[V:4]C,2 z2 =E,2 z2 |
[V:1](3cfc (3ccc (3cgc (3ccc |
[V:2](3CAF (3CAF (3CBG (3CBG |
[V:3]F2 z2 =E2 z2 |
[V:4]F,2 z2 B,2 z2 |
[V:1](3cag (3f=ef (3cfe (3_ed^c |
[V:2]F2 z2 F2 z2 |
[V:3]F2 z2 F2 z2 |
[V:4]A,2 z2 A,,2 z2 |
[V:1](3dba (3g^c'd' (3ab^f (3gbd |
[V:2]F2 z6 |
[V:3]F,2 z6 |
[V:4]B,,2 z6 |
[V:1](3f=eg (3c'ge (3ff'=e' (3_e'd'^c' |
[V:2]G2 z2 F2 z2 |
[V:3]C2 z2 C2 z2 |
[V:4]B,2 z2 A,2 z2 |
[V:1](3d'f'a (3bd'=B c2 g2 |
[V:2]F2 z>F F2 =E2 |
[V:3]D2 z>_A, =A,2 B,2 |
[V:4]B,2 z>D C2 C,2 |
[V:1](3fcc (3ccc (3=Bcc (3ccc |
[V:2]F2 z6 |
[V:3]A,2 z6 |
[V:4]F,2 z6 |
[V:1](3c4 >>=B4 c (3_dcB |
[V:2](3zc=B (3_BA_A G2 A2 |
[V:3]z4 =E2 F2 |
[V:4]C,2 z6 |
[V:1](3c4 >>=B4 c (3_dcB |
[V:2](3Gc=B (3_BA_A G2 A2 |
[V:3]=E2 z2 E2 F2 |
[V:4]C,,2 z6 |
[V:1]c4 b4 |
[V:2](3Gc=B (3_BA_A G4 |
[V:3]=E2 z2 (3C,C_D (3=D_E=E |
[V:4]C,2 z2 (3C,,C,_D, (3=D,E,=E, |
[V:1](3a4 >>f'4 f' (3f'f'f' |
[V:2](3F4 >>a4 a (3aaa |
[V:3](3FA,B, (3=B,C^C D2 B,2 |
[V:4](3F,A,,B,, (3=B,,C,^C, D,2 B,,2 |
[V:1]f'2 >a2 g4 |
[V:2]a3- (3:2:8a/F FFF =EE E|
[V:3](3CCC (3CCC (3CCC (3B,B,B, |
[V:4](3C,C,C, (3C,C,C, (3C,C,C, (3C,C,C, |
[V:1]f8 |
[V:2]F8 |
[V:3](3A,FC (3A,FC (3A,FC (3A,FC |
[V:4]F,2 F,2 F,2 F,2 |
[V:1]e8 |
[V:2]c8 |
[V:3](3A,FC (3A,FC (3A,FC (3A,FC |
[V:4]z2 F,2 F,2 F,2 |
[V:1]_d8 |
[V:2]B8 |
[V:3](3B,F_D (3B,FD (3B,FD (3B,FD |
[V:4]z2 F,2 F,2 F,2 |
[V:1]b8- |
[V:2]_d8 |
[V:3](3B,G_D (3B,GD (3B,GD (3B,GD |
[V:4]z2 E,2 E,2 E,2 |
[V:1]b8 |
[V:2]d8 |
[V:3](3B,GD (3B,GD (3B,GD (3B,GD |
[V:4]z2 D,2 D,2 D,2 |
[V:1]g'8 |
[V:2]=e8 |
[V:3](3B,G=E (3B,GE (3B,GE (3B,GE |
[V:4]z2 ^C,2 C,2 C,2 |
[V:1]^f'4 d'4 |
[V:2]d4 ^F4 |
[V:3](3A,^FD (3A,FD (3A,FD (3A,FD |
[V:4]z2 D,2 D,2 D,2 |
[V:1]^c'4 g4 |
[V:2]B8 |
[V:3](3G,=E^C (3G,EC (3GEC (3G,EC |
[V:4]z2 D,2 D,2 D,2 |
[V:1]^f4 d4 |
[V:2]A4 A,4 |
[V:3](3D^F,A, (3DF,A, (3DF,A, (3DF,A, |
[V:4]z2 D,,2 D,,2 D,,2 |
[V:1]^c4 G4 |
[V:2]B,8 |
[V:3](3G,=E^C (3G,EC (3GEC (3G,EC |
[V:4]z2 D,,2 D,,2 D,,2 |
[V:1]^F4 D2 D2 |
[V:2]A,4 D2 D2 |
[V:3](3D^F,A, (3DF,A, (3DF,A, (3DF,A, |
[V:4]D,,4 D,,2 D,,2 |
[V:1]D4 z4 |
[V:2]D4 z4 |
[V:3]D2 z6 |
[V:4]D,,4 z4 |
[V:1]f6 e/d/c/B/ |
[V:2]z2 D2 D2 D2 |
[V:3]z2 B,2 F2 F2 |
[V:4]z2 B,2 B,2 B,2 |
[V:1]fe2 <e2 e fg |
[V:2]z2 E2 E2 E2 |
[V:3]z2 G2 G2 G2 |
[V:4]z2 B,2 B,2 B,2 |
[V:1]gc2 <c2 c de |
[V:2]z2 E2 E2 E2 |
[V:3]z2 F2 F2 F2 |
[V:4]z2 A,2 A,2 A,2 |
[V:1](3ede d2 >f2 fb |
[V:2]z2 D2 D2 B2 |
[V:3]z2 F2 F2 F2 |
[V:4]z2 B,2 B,2 D,2 |
[V:1]bc2 <c2 c de |
[V:2]z2 B2 A2 A2 |
[V:3]z2 G2 F2 C2 |
[V:4]z2 E,2 F,2 F,2 |
[V:1]dc/B/ B2 z4 |
[V:2]z2 B2 B2 B2 |
[V:3]z2 D2 D2 D2 |
[V:4]z2 B,,2 B,,2 B,,2 |
[V:1](3:2:2F4- F/FG D|
[V:2]z2 D2 D2 D2 |
[V:3]z2 F,2 F,2 B,2 |
[V:4]z2 B,,2 B,,2 B,,2 |
[V:1]FE2 <E2 E FG |
[V:2]z2 C2 C2 C2 |
[V:3]z2 G,2 G,2 G,2 |
[V:4]z2 B,,2 B,,2 B,,2 |
[V:1]GC2 <C2 C DE |
[V:2]z2 E2 E2 C2 |
[V:3]z2 F,2 F,2 F,2 |
[V:4]z2 A,,2 A,,2 A,,2 |
[V:1]ED/E/ D2 >F2 FB |
[V:2]z2 D2 D2 B,2 |
[V:3]z2 F,2 F,2 F,2 |
[V:4]z2 B,,2 B,,2 D,,2 |
[V:1]BC2 <C2 C DE |
[V:2]z2 B,2 A,2 A,2 |
[V:3]z2 G,2 F,2 C,2 |
[V:4]z2 E,,2 F,,2 F,,2 |
[V:1]ED2 <D2 F _AF |
[V:2]z2 B,2 B,2 B,2 |
[V:3]z2 F,2 F,2 F,2 |
[V:4]z2 _A,,2 A,,2 A,,2 |
[V:1](3FDE E2 >G2 BG |
[V:2]z2 B,2 B,2 B,2 |
[V:3]z2 G,2 G,2 E,2 |
[V:4]z2 G,,2 G,,2 G,,2 |
[V:1](3=EGF F2 >_A2 cA |
[V:2]z2 B,2 B,2 B,2 |
[V:3]z2 D,2 D,2 D,2 |
[V:4]z2 D,,2 D,,2 D,,2 |
[V:1]_AG Ge2 <e2 d/c/ |
[V:2]z2 B,2 B,2 C2 |
[V:3]z2 E,2 G,2 G,2 |
[V:4]z2 E,,2 E,,2 E,,2 |
[V:1]A4 z4 |
[V:2](3CAF (3CAF (3CAF (3CAF |
[V:3]z2 F,2 F,2 F,2 |
[V:4]z2 F,,2 F,,2 F,,2 |
[V:1]A8 |
[V:2](3CAE (3CAE (3CAE (3CAE |
[V:3]z2 E,2 E,2 E,2 |
[V:4]z2 F,2 F,2 F,2 |
[V:1](3Bfd (3BFD (3B,DF (3Bdf |
[V:2](3DBF (3DBF (3DBF (3DBF |
[V:3]z2 D,2 D2 D2 |
[V:4]z2 F,2 F,2 F,2 |
[V:1]e8 |
[V:2](3CAE (3CAE (3CAE (3CAE |
[V:3]z2 A,2 A,2 A,2 |
[V:4]z2 F,2 F,2 F,2 |
[V:1](3dbf (3dBF (3DB,D (3FBd |
[V:2](3DBF (3DBF (3DBF (3DBF |
[V:3]z2 B,2 B,2 B,2 |
[V:4]z2 F,2 F,2 F,2 |
[V:1]f8 |
[V:2](3D=B_A (3DBA (3DBA (3DBA |
[V:3]z2 =B,2 B,2 B,2 |
[V:4]z2 D,2 D,2 D,2 |
[V:1](3edc (3ccc (3ccc (3cec |
[V:2](3EcG (3EcG (3EcG (3EcG |
[V:3]z2 G,2 G,2 G,2 |
[V:4]z2 E,2 E,2 E,2 |
[V:1](3AGF (3FFF (3FFF (3FAF |
[V:2](3FcA (3FcA (3FcA (3FcA |
[V:3]z2 A,2 A,2 A,2 |
[V:4]z2 E,2 E,2 E,2 |
[V:1](3FBF (3FFF (3FcF (3FFF |
[V:2](3FdB (3FdB (3Fec (3Fec |
[V:3]B,2 z2 C2 z2 |
[V:4]D,2 z2 A,,2 z2 |
[V:1](3Fdc (3BAB (3FBA (3_AG^F |
[V:2]d2 z2 B,2 z2 |
[V:3]B,2 z2 B,2 z2 |
[V:4]B,,2 z2 D,2 z2 |
[V:1](3Ged (3c^fg (3de=B (3ceG |
[V:2]B,2 z6 |
[V:3]B,2 z6 |
[V:4]E,2 z6 |
[V:1](3BAc (3fcA (3Bba (3_ag^f |
[V:2]C2 z2 B,2 z2 |
[V:3]F,2 z2 F,2 z2 |
[V:4]E,2 z2 D,2 z2 |
[V:1](3gbd (3eg=E F2 c2 |
[V:2]B,2 z>B B2 A2 |
[V:3]B,2 z>_D =D2 E2 |
[V:4]E,2 z>G, F,2 F,2 |
[V:1](3Bff (3fff (3=eff (3fff |
[V:2]B2 z6 |
[V:3]D2 z6 |
[V:4]B,,2 z6 |
[V:1](3f4 >>=e4 f (3_gfe |
[V:2](3zf=e (3_ed_d c2 d2 |
[V:3]z4 A2 B2 |
[V:4]F,,2 z6 |
[V:1](3f4 >>=e4 f (3_gfe |
[V:2](3cF=E (3_ED_D C2 D2 |
[V:3]A2 z2 A,2 B,2 |
[V:4]F,,2 z6 |
[V:1]f4 e'4 |
[V:2](3Cf=e (3_ed_d c4 |
[V:3]A,2 z2 (3F,F_G (3=G_A=A |
[V:4]F,,2 z2 (3F,,F,_G, (3=G,_A,=A, |
[V:1](3d'4 >>d4 d (3ddd |
[V:2](3B4 >>B4 B (3BBB |
[V:3](3BDE (3=EF^F G2 E2 |
[V:4](3B,D,E, (3=E,F,^F, G,2 E,2 |
[V:1]d4 c4 |
[V:2]B4 A4 |
[V:3](3FFF (3FFF (3EEE (3EEE |
[V:4](3F,F,F, (3F,F,F, (3F,F,F, (3F,F,F, |
[V:1](3B4 >>=B4 c (3deA |
[V:2](3BBA (3_AG^F G7/ E/ |
[V:3]D2 D2 E2 E3/C/ |
[V:4]B,,8- |
[V:1](3B4 >>=B4 c (3deE |
[V:2](3DBA (3_AG^F G7/ A,/ |
[V:3]B,2 D2 E2 E3/C/ |
[V:4]B,,8- |
[V:1]E4 D2 z2 |]
[V:2]A,4 B,2 z2 |]
[V:3]C4 D2 z2 |]
[V:4]B,,4- B,,2 z2 |]

